www/assets/icons/3d_rotation.svg

<svg width="24" height="24" viewBox="0 0 24 24" xmlns="http://www.w3.org/2000/svg" fill='currentColor'><g clip-path="url(#clip0_1616_5743)"><path d="M7.52505 21.48C4.25505 19.94 1.91505 16.76 1.55505 13H0.0550537C0.565054 19.16 5.71505 24 12.0051 24L12.6651 23.97L8.85505 20.16L7.52505 21.48ZM8.41505 14.96C8.22505 14.96 8.04505 14.93 7.89505 14.88C7.73505 14.82 7.60505 14.75 7.49505 14.64C7.38505 14.54 7.29505 14.42 7.23505 14.27C7.17505 14.13 7.14505 13.97 7.14505 13.8H5.84505C5.84505 14.16 5.91505 14.48 6.05505 14.75C6.19505 15.02 6.38505 15.25 6.61505 15.44C6.85505 15.62 7.12505 15.76 7.43505 15.85C7.73505 15.95 8.05505 16 8.39505 16C8.76505 16 9.11505 15.95 9.42505 15.85C9.74505 15.75 10.0251 15.6 10.2551 15.41C10.4851 15.22 10.6751 14.98 10.8051 14.69C10.9351 14.4 11.0051 14.08 11.0051 13.72C11.0051 13.53 10.9851 13.34 10.9351 13.16C10.8851 12.98 10.8151 12.81 10.7051 12.65C10.6051 12.49 10.4651 12.35 10.3051 12.22C10.1351 12.09 9.93505 11.99 9.69505 11.91C9.89505 11.82 10.0651 11.71 10.2151 11.58C10.3651 11.45 10.4851 11.31 10.5851 11.16C10.6851 11.01 10.7551 10.86 10.8051 10.7C10.8551 10.54 10.8751 10.38 10.8751 10.22C10.8751 9.86 10.8151 9.54 10.6951 9.26C10.5751 8.98 10.4051 8.75 10.1851 8.57C9.98505 8.38 9.71505 8.24 9.41505 8.14C9.10505 8.05 8.76505 8 8.39505 8C8.03505 8 7.70505 8.05 7.39505 8.16C7.09505 8.27 6.82505 8.42 6.60505 8.61C6.39505 8.8 6.22505 9.02 6.09505 9.28C5.97505 9.54 5.91505 9.82 5.91505 10.13H7.21505C7.21505 9.96 7.24505 9.81 7.30505 9.68C7.36505 9.55 7.44505 9.43 7.55505 9.34C7.66505 9.25 7.78505 9.17 7.93505 9.12C8.08505 9.07 8.23505 9.04 8.41505 9.04C8.81505 9.04 9.11505 9.14 9.30505 9.35C9.49505 9.55 9.59505 9.84 9.59505 10.21C9.59505 10.39 9.56505 10.55 9.51505 10.7C9.46505 10.85 9.37505 10.97 9.26505 11.07C9.15505 11.17 9.01505 11.25 8.85505 11.31C8.69505 11.37 8.49505 11.4 8.27505 11.4H7.50505V12.43H8.27505C8.49505 12.43 8.69505 12.45 8.87505 12.5C9.05505 12.55 9.20505 12.63 9.32505 12.73C9.44505 12.84 9.54505 12.97 9.61505 13.13C9.68505 13.29 9.71505 13.48 9.71505 13.7C9.71505 14.11 9.59505 14.42 9.36505 14.63C9.13505 14.86 8.81505 14.96 8.41505 14.96ZM16.9651 9.04C16.6451 8.71 16.2651 8.45 15.8251 8.27C15.3951 8.09 14.9051 8 14.3651 8H12.0051V16H14.3051C14.8551 16 15.3651 15.91 15.8151 15.73C16.2651 15.55 16.6551 15.3 16.9751 14.97C17.2951 14.64 17.5451 14.24 17.7151 13.78C17.8851 13.31 17.9751 12.79 17.9751 12.21V11.81C17.9751 11.23 17.8851 10.71 17.7151 10.24C17.5351 9.77 17.2851 9.37 16.9651 9.04ZM16.5751 12.2C16.5751 12.62 16.5251 12.99 16.4351 13.33C16.3351 13.66 16.1951 13.95 16.0051 14.18C15.8151 14.41 15.5751 14.59 15.2951 14.71C15.0051 14.83 14.6751 14.89 14.3051 14.89H13.3951V9.12H14.3651C15.0851 9.12 15.6351 9.35 16.0051 9.81C16.3851 10.27 16.5751 10.93 16.5751 11.8V12.2ZM12.0051 0L11.3451 0.03L15.1551 3.84L16.4851 2.51C19.7551 4.06 22.0951 7.23 22.4451 10.99H23.9451C23.4451 4.84 18.2951 0 12.0051 0Z"/></g><defs><clipPath id="clip0_1616_5743"><rect width="24" height="24"/></clipPath></defs></svg>

<svg xmlns="http://www.w3.org/2000/svg" width="24" height="24" viewBox="0 0 24 24" fill='currentColor'><g clip-path="url(#a)"><path d="M7.525 21.48A10.49 10.49 0 0 1 1.555 13h-1.5c.51 6.16 5.66 11 11.95 11l.66-.03-3.81-3.81zm.89-6.52c-.19 0-.37-.03-.52-.08a1.1 1.1 0 0 1-.4-.24c-.11-.1-.2-.22-.26-.37-.06-.14-.09-.3-.09-.47h-1.3c0 .36.07.68.21.95s.33.5.56.69c.24.18.51.32.82.41q.45.15.96.15c.37 0 .72-.05 1.03-.15.32-.1.6-.25.83-.44s.42-.43.55-.72.2-.61.2-.97c0-.19-.02-.38-.07-.56a1.7 1.7 0 0 0-.23-.51c-.1-.16-.24-.3-.4-.43-.17-.13-.37-.23-.61-.31a2.1 2.1 0 0 0 .89-.75c.1-.15.17-.3.22-.46s.07-.32.07-.48q0-.54-.18-.96a1.8 1.8 0 0 0-.51-.69c-.2-.19-.47-.33-.77-.43-.31-.09-.65-.14-1.02-.14-.36 0-.69.05-1 .16-.3.11-.57.26-.79.45-.21.19-.38.41-.51.67-.12.26-.18.54-.18.85h1.3q0-.255.09-.45a.94.94 0 0 1 .25-.34c.11-.09.23-.17.38-.22s.3-.08.48-.08c.4 0 .7.1.89.31.19.2.29.49.29.86 0 .18-.03.34-.08.49a.87.87 0 0 1-.25.37c-.11.1-.25.18-.41.24s-.36.09-.58.09h-.77v1.03h.77c.22 0 .42.02.6.07s.33.13.45.23c.12.11.22.24.29.4s.1.35.1.57c0 .41-.12.72-.35.93-.23.23-.55.33-.95.33m8.55-5.92c-.32-.33-.7-.59-1.14-.77-.43-.18-.92-.27-1.46-.27h-2.36v8h2.3c.55 0 1.06-.09 1.51-.27s.84-.43 1.16-.76.57-.73.74-1.19c.17-.47.26-.99.26-1.57v-.4c0-.58-.09-1.1-.26-1.57q-.27-.705-.75-1.2m-.39 3.16c0 .42-.05.79-.14 1.13-.1.33-.24.62-.43.85s-.43.41-.71.53q-.435.18-.99.18h-.91V9.12h.97c.72 0 1.27.23 1.64.69.38.46.57 1.12.57 1.99zM12.005 0l-.66.03 3.81 3.81 1.33-1.33c3.27 1.55 5.61 4.72 5.96 8.48h1.5C23.445 4.84 18.295 0 12.005 0"/></g><defs><clipPath id="a"><path d="M0 0h24v24H0z"/></clipPath></defs></svg>
